src/assets/w3.svg

<svg height="40" viewBox="0 0 80 80" width="40" xmlns="http://www.w3.org/2000/svg" xmlns:xlink="http://www.w3.org/1999/xlink"><mask id="a" fill="#fff"><path d="m0 .286h67.922v7.435h-67.922z" fill="#fff" fill-rule="evenodd"/></mask><mask id="b" fill="#fff"><path d="m.097 0h43.73v7.435h-43.731z" fill="#fff" fill-rule="evenodd"/></mask><g fill="#27d79d" fill-rule="evenodd"><path d="m58.108 61.868h-36.293a3.718 3.718 0 1 1 0-7.435h36.293a3.718 3.718 0 1 1 0 7.435"/><path d="m64.205 7.721h-60.487a3.719 3.719 0 0 1 0-7.434h60.487a3.717 3.717 0 1 1 0 7.434" mask="url(#a)" transform="translate(6 36)"/><path d="m40.108 7.435h-36.293a3.719 3.719 0 0 1 0-7.436h36.293a3.719 3.719 0 0 1 0 7.436" mask="url(#b)" transform="translate(18)"/><path d="m64.156 25.57h-48.389a3.717 3.717 0 1 1 0-7.435h48.389a3.717 3.717 0 1 1 0 7.435m-24.194 54.43a3.717 3.717 0 0 1 -3.718-3.717v-16.494a3.717 3.717 0 1 1 7.436 0v16.494a3.717 3.717 0 0 1 -3.718 3.717"/></g></svg>

<svg xmlns="http://www.w3.org/2000/svg" xmlns:xlink="http://www.w3.org/1999/xlink" width="40" height="40" viewBox="0 0 80 80">
    <defs>
        <path id="a" d="M0 .286h67.922v7.435H0z"/>
        <path id="c" d="M.097 0h43.73v7.435H.096z"/>
    </defs>
    <g fill="none" fill-rule="evenodd">
        <path fill="#27D79D" d="M58.108 61.868H21.815a3.718 3.718 0 1 1 0-7.435h36.293a3.718 3.718 0 1 1 0 7.435"/>
        <g transform="translate(6 36)">
            <mask id="b" fill="#fff">
                <use xlink:href="#a"/>
            </mask>
            <path fill="#27D79D" d="M64.205 7.721H3.718a3.719 3.719 0 0 1 0-7.434h60.487a3.717 3.717 0 1 1 0 7.434" mask="url(#b)"/>
        </g>
        <g transform="translate(18)">
            <mask id="d" fill="#fff">
                <use xlink:href="#c"/>
            </mask>
            <path fill="#27D79D" d="M40.108 7.435H3.815a3.719 3.719 0 0 1 0-7.436h36.293a3.719 3.719 0 0 1 0 7.436" mask="url(#d)"/>
        </g>
        <path fill="#27D79D" d="M64.156 25.57H15.767a3.717 3.717 0 1 1 0-7.435h48.389a3.717 3.717 0 1 1 0 7.435M39.962 80a3.717 3.717 0 0 1-3.718-3.717V59.789a3.717 3.717 0 1 1 7.436 0v16.494A3.717 3.717 0 0 1 39.962 80"/>
    </g>
</svg>
